X: 21982
T: Kitty Of Oulart
R: jig
M: 6/8
K: Dmajor
AG|:FAD FED|(3FGAD FED|GBG FAF|EFE EFG|
(3FGAD FED|FAD FED|dcB AFA|DED D3:|
|:d2e f2d|edB BAF|ABA ABd|efd edB|
d2e f2d|edB BAF|dcB AFA|DED D3:|
|:dB/c/d efg|fad cBA|B3 AFD|EFE E2A|
dcd efg|fad cBA|BdB AFA|DED D3:|

